X: 020894
T: Bly's Jig
S: "First Collection of Traditional Irish Music" (M.Mulvihill)
N: "Jim Bly, flute player from Roscommon, who I often played
N: with in England." - MM
Z: B.Black
L: 1/8
M: 6/8
R: jig
K: Ador
A/G/|EAA ABd|e/f/ge dBA|GEF GAB|dBA GED|
EAA ABd|e/f/ge def|g2 d e/f/ge|dBG A2 :|
d|eag e2 d|eaa bag|efg d2 f|egg ged|
eag e2 d|eaa bag|e/f/ge dBG|BAG A2 :|
